X:190
T:Donnie's Farewell to London
C:Pat Shaw Collection Book 1 No 13.
S:Colin Hume's website,  colinhume.com  - chords can also be printed below the stave.
Q:1/2=120
M:4/4
L:1/8
K:C
V:1
P:A
ed | "Am"c2A2A2 Bc | "G"dcBA G2 ed | "Am"c2A2A2 BA | "Em"G2E2E2 ed | "Am"c2A2A2 Bc | "G"dcBA G2 ed | "Am"c2 Ac "Em"B2 GB | "Am"A6 :|
P:B
e2 | "Am"a4a2 ef | "C"gece g2 eg | "Am"a2e2e2 dc | "G"BcdB G2e2 | "Am"a3b c'bag | "Dm"fedc "G"B2 cd | "C"e2g2 "F"abag | "C"e2g4 "Em"eg |
"Am"a3ba2 ef | "C"gece g2 eg | "Am"abag efge | "Dm"fedc "Em"dfed | "Am"c2A2A2 Bc | "G"dcBA G2 ed | "Am"c2 Ac "Em"B2 GB | "Am"A6 |]

